www/assets/icons/filter_tilt_shift.svg

<svg width="24" height="24" viewBox="0 0 24 24" xmlns="http://www.w3.org/2000/svg" fill='currentColor'><path d="M11 4.07005V2.05005C8.98999 2.25005 7.15999 3.05005 5.67999 4.26005L7.09999 5.69005C8.20999 4.83005 9.53999 4.25005 11 4.07005ZM18.32 4.26005C16.84 3.05005 15.01 2.25005 13 2.05005V4.07005C14.46 4.25005 15.79 4.83005 16.9 5.69005L18.32 4.26005ZM19.93 11H21.95C21.75 8.99005 20.95 7.16005 19.74 5.68005L18.31 7.10005C19.17 8.21005 19.75 9.54005 19.93 11ZM5.68999 7.10005L4.25999 5.68005C3.04999 7.16005 2.24999 8.99005 2.04999 11H4.06999C4.24999 9.54005 4.82999 8.21005 5.68999 7.10005ZM4.06999 13H2.04999C2.24999 15.01 3.04999 16.84 4.25999 18.32L5.68999 16.89C4.82999 15.79 4.24999 14.46 4.06999 13ZM15 12C15 10.34 13.66 9.00005 12 9.00005C10.34 9.00005 8.99999 10.34 8.99999 12C8.99999 13.66 10.34 15 12 15C13.66 15 15 13.66 15 12ZM18.31 16.9L19.74 18.33C20.95 16.85 21.75 15.01 21.95 13.01H19.93C19.75 14.46 19.17 15.79 18.31 16.9ZM13 19.93V21.9501C15.01 21.75 16.84 20.9501 18.32 19.74L16.89 18.31C15.79 19.17 14.46 19.75 13 19.93ZM5.67999 19.74C7.15999 20.9501 8.99999 21.75 11 21.9501V19.93C9.53999 19.75 8.20999 19.17 7.09999 18.31L5.67999 19.74Z"/></svg>

<svg xmlns="http://www.w3.org/2000/svg" width="24" height="24" viewBox="0 0 24 24" fill='currentColor'><path d="M11 4.07V2.05c-2.01.2-3.84 1-5.32 2.21L7.1 5.69A7.94 7.94 0 0 1 11 4.07m7.32.19A9.95 9.95 0 0 0 13 2.05v2.02c1.46.18 2.79.76 3.9 1.62zM19.93 11h2.02c-.2-2.01-1-3.84-2.21-5.32L18.31 7.1a7.94 7.94 0 0 1 1.62 3.9M5.69 7.1 4.26 5.68A9.95 9.95 0 0 0 2.05 11h2.02c.18-1.46.76-2.79 1.62-3.9M4.07 13H2.05c.2 2.01 1 3.84 2.21 5.32l1.43-1.43A7.87 7.87 0 0 1 4.07 13M15 12c0-1.66-1.34-3-3-3s-3 1.34-3 3 1.34 3 3 3 3-1.34 3-3m3.31 4.9 1.43 1.43a10 10 0 0 0 2.21-5.32h-2.02a7.95 7.95 0 0 1-1.62 3.89M13 19.93v2.02c2.01-.2 3.84-1 5.32-2.21l-1.43-1.43c-1.1.86-2.43 1.44-3.89 1.62m-7.32-.19A10 10 0 0 0 11 21.95v-2.02a7.94 7.94 0 0 1-3.9-1.62z"/></svg>
